flaticon/wild-west/tomahawk.svg

<svg xmlns="http://www.w3.org/2000/svg" width="32" height="32" viewBox="0 0 24 24">
    <path d="M 18.183594 4.785156 C 18.347656 4.71875 18.457031 4.5625 18.441406 4.378906 C 18.425781 4.199219 18.289062 4.0625 18.121094 4.027344 L 18.421875 3.726562 C 18.699219 3.449219 18.699219 3 18.421875 2.726562 L 17.707031 2.011719 C 17.429688 1.734375 16.984375 1.734375 16.707031 2.011719 L 16.410156 2.3125 C 16.371094 2.144531 16.238281 2.007812 16.054688 1.992188 C 15.832031 1.976562 15.636719 2.136719 15.617188 2.359375 L 15.582031 2.742188 L 15.207031 2.371094 L 15.78125 1.796875 L 14.308594 0.324219 C 13.871094 -0.109375 13.113281 -0.109375 12.679688 0.324219 L 11.449219 1.554688 C 11 2.003906 11 2.734375 11.449219 3.183594 L 12.921875 4.65625 L 13.492188 4.082031 L 13.804688 4.394531 L 13.558594 4.417969 C 13.335938 4.4375 13.171875 4.632812 13.191406 4.855469 C 13.210938 5.035156 13.34375 5.171875 13.511719 5.207031 L 12.820312 5.898438 L 12.667969 5.746094 C 12.511719 5.585938 12.253906 5.585938 12.097656 5.746094 C 11.9375 5.902344 11.9375 6.160156 12.097656 6.316406 L 12.25 6.46875 L 12.011719 6.707031 L 11.859375 6.554688 C 11.703125 6.394531 11.445312 6.394531 11.289062 6.554688 C 11.132812 6.710938 11.132812 6.964844 11.289062 7.125 L 11.441406 7.277344 L 11.207031 7.515625 L 11.050781 7.359375 C 10.894531 7.203125 10.640625 7.203125 10.480469 7.359375 C 10.324219 7.519531 10.324219 7.773438 10.480469 7.933594 L 10.632812 8.085938 L 0.09375 18.625 L 1.808594 20.339844 L 11.980469 10.171875 L 11.980469 11.144531 L 9.554688 14.171875 L 9.554688 14.316406 C 9.554688 20.875 11.984375 23.570312 12.085938 23.679688 L 12.382812 24 L 12.679688 23.679688 C 12.78125 23.570312 15.210938 20.875 15.210938 14.316406 L 15.210938 14.171875 L 12.785156 11.144531 L 12.785156 9.363281 L 13.15625 8.992188 L 13.308594 9.144531 C 13.386719 9.226562 13.492188 9.265625 13.59375 9.265625 C 13.699219 9.265625 13.800781 9.226562 13.878906 9.144531 C 14.039062 8.988281 14.039062 8.734375 13.878906 8.574219 L 13.726562 8.421875 L 13.964844 8.183594 L 14.117188 8.335938 C 14.195312 8.417969 14.300781 8.457031 14.402344 8.457031 C 14.507812 8.457031 14.609375 8.417969 14.6875 8.335938 C 14.847656 8.179688 14.847656 7.925781 14.6875 7.765625 L 14.535156 7.613281 L 15.226562 6.921875 C 15.261719 7.089844 15.398438 7.226562 15.578125 7.242188 C 15.589844 7.242188 15.601562 7.242188 15.617188 7.242188 C 15.820312 7.242188 16 7.085938 16.015625 6.875 L 16.039062 6.632812 L 16.859375 7.449219 C 17.207031 7.796875 17.207031 8.363281 16.863281 8.714844 C 16.445312 9.136719 16.273438 9.734375 16.402344 10.304688 L 17.261719 14.027344 L 23.90625 7.386719 Z M 17.207031 2.65625 L 17.78125 3.226562 L 16.921875 4.082031 L 16.351562 3.511719 Z M 12.921875 3.511719 L 12.023438 2.613281 C 11.886719 2.476562 11.886719 2.261719 12.023438 2.125 L 13.25 0.898438 C 13.382812 0.765625 13.605469 0.769531 13.734375 0.898438 L 14.636719 1.796875 L 14.066406 2.371094 L 15.488281 3.792969 L 15.445312 4.246094 L 14.851562 4.300781 L 14.636719 4.082031 L 13.492188 2.941406 Z M 1.238281 18.625 L 11.207031 8.65625 L 11.777344 9.230469 L 1.808594 19.199219 Z M 14.402344 14.457031 C 14.375 19.210938 13 21.808594 12.382812 22.734375 C 11.761719 21.8125 10.390625 19.234375 10.363281 14.457031 L 11.980469 12.4375 L 11.980469 13.539062 L 11.289062 14.230469 C 11.132812 14.386719 11.132812 14.644531 11.289062 14.800781 C 11.367188 14.878906 11.472656 14.921875 11.574219 14.921875 C 11.679688 14.921875 11.78125 14.878906 11.859375 14.800781 L 11.980469 14.683594 L 11.980469 15.5625 L 11.289062 16.25 C 11.132812 16.410156 11.132812 16.664062 11.289062 16.820312 C 11.367188 16.902344 11.472656 16.941406 11.574219 16.941406 C 11.679688 16.941406 11.78125 16.902344 11.859375 16.820312 L 11.980469 16.703125 L 11.980469 20.980469 C 11.980469 21.203125 12.160156 21.386719 12.382812 21.386719 C 12.605469 21.386719 12.789062 21.203125 12.789062 20.980469 L 12.789062 16.703125 L 12.90625 16.820312 C 12.984375 16.902344 13.089844 16.941406 13.191406 16.941406 C 13.292969 16.941406 13.398438 16.902344 13.476562 16.820312 C 13.636719 16.664062 13.636719 16.410156 13.476562 16.25 L 12.789062 15.5625 L 12.789062 14.683594 L 12.90625 14.800781 C 12.984375 14.878906 13.089844 14.921875 13.191406 14.921875 C 13.292969 14.921875 13.398438 14.878906 13.476562 14.800781 C 13.636719 14.644531 13.636719 14.386719 13.476562 14.230469 L 12.789062 13.539062 L 12.789062 12.4375 Z M 12.347656 8.65625 L 11.777344 8.085938 L 12.011719 7.847656 L 12.585938 8.421875 Z M 13.15625 7.851562 L 12.585938 7.277344 L 12.820312 7.042969 L 13.394531 7.613281 Z M 13.394531 6.46875 L 14.636719 5.226562 L 15.207031 5.796875 L 13.964844 7.042969 Z M 17.191406 10.125 C 17.121094 9.824219 17.214844 9.507812 17.4375 9.28125 C 18.09375 8.617188 18.09375 7.539062 17.429688 6.878906 L 16.351562 5.796875 L 16.136719 5.582031 L 16.191406 4.988281 L 16.644531 4.949219 L 16.6875 4.992188 L 22.511719 7.640625 L 17.722656 12.425781 Z M 17.191406 10.125"/>
</svg>

<svg xmlns="http://www.w3.org/2000/svg" width="32" height="32" viewBox="0 0 24 24">
    <path d="M18.184 4.785a.4.4 0 0 0 .257-.406.398.398 0 0 0-.32-.352l.3-.3a.705.705 0 0 0 0-1l-.714-.715a.705.705 0 0 0-1 0l-.297.3a.403.403 0 0 0-.355-.32.406.406 0 0 0-.438.367l-.035.383-.375-.37.574-.575L14.31.324c-.438-.433-1.196-.433-1.63 0l-1.23 1.23c-.449.45-.449 1.18 0 1.63l1.473 1.472.57-.574.313.313-.246.023a.403.403 0 0 0-.368.437c.02.18.153.317.32.352l-.69.691-.153-.152a.399.399 0 0 0-.57 0 .399.399 0 0 0 0 .57l.152.153-.238.238-.153-.152a.399.399 0 0 0-.57 0 .406.406 0 0 0 0 .57l.152.152-.234.239-.156-.157a.406.406 0 0 0-.57 0 .41.41 0 0 0 0 .575l.152.152L.093 18.625 1.81 20.34 11.98 10.172v.973l-2.425 3.027v.144c0 6.559 2.43 9.254 2.53 9.364l.298.32.297-.32c.101-.11 2.53-2.805 2.53-9.364v-.144l-2.425-3.027V9.363l.371-.37.153.152a.394.394 0 0 0 .57 0 .399.399 0 0 0 0-.57l-.152-.153.238-.238.152.152a.394.394 0 0 0 .57 0 .399.399 0 0 0 0-.57l-.152-.153.692-.691a.398.398 0 0 0 .351.32h.04a.4.4 0 0 0 .398-.367l.023-.242.82.816a.902.902 0 0 1 .004 1.266 1.718 1.718 0 0 0-.46 1.59l.859 3.722 6.644-6.64zm-.977-2.129l.574.57-.86.856-.57-.57zm-4.285.856l-.899-.899a.342.342 0 0 1 0-.488L13.25.898a.348.348 0 0 1 .484 0l.903.899-.57.574 1.421 1.422-.043.453-.593.055-.215-.219-1.145-1.14zM1.238 18.625l9.969-9.969.57.574L1.81 19.2zm13.164-4.168c-.027 4.754-1.402 7.352-2.02 8.277-.62-.922-1.991-3.5-2.019-8.277l1.617-2.02v1.102l-.69.691a.406.406 0 0 0 .284.692.403.403 0 0 0 .285-.121l.121-.117v.879l-.69.687a.406.406 0 0 0 .284.691c.106 0 .207-.039.285-.12l.121-.118v4.277c0 .223.18.407.403.407a.408.408 0 0 0 .406-.407v-4.277l.117.117a.394.394 0 0 0 .57 0 .399.399 0 0 0 0-.57l-.687-.688v-.878l.117.117a.41.41 0 0 0 .285.12.41.41 0 0 0 .286-.12.399.399 0 0 0 0-.57l-.688-.692v-1.101zm-2.054-5.8l-.57-.571.234-.238.574.574zm.808-.805l-.57-.575.234-.234.575.57zm.239-1.383l1.242-1.242.57.57-1.242 1.246zm3.796 3.656a.91.91 0 0 1 .247-.844 1.705 1.705 0 0 0-.008-2.402l-1.078-1.082-.215-.215.054-.594.454-.039.043.043 5.824 2.649-4.79 4.785zm0 0"/>
</svg>
